src/assets/icons/power-off.svg

<svg width="14" height="14" viewBox="0 0 14 14" fill="none" xmlns="http://www.w3.org/2000/svg">
<g id="power-off">
<g clip-path="url(#clip0_156_4627)">
<path id="Vector" fill-rule="evenodd" clip-rule="evenodd" d="M7.58333 0.680623C7.58333 0.358457 7.32217 0.09729 7 0.09729C6.67783 0.09729 6.41667 0.358457 6.41667 0.680623V6.90285C6.41667 7.22501 6.67783 7.48618 7 7.48618C7.32217 7.48618 7.58333 7.22501 7.58333 6.90285V0.680623ZM2.87665 2.7822C3.10522 2.55515 3.10645 2.18581 2.87941 1.95724C2.65237 1.72868 2.28302 1.72744 2.05446 1.95448C0.780932 3.21952 0 4.97713 0 6.90277C0 8.83108 0.790558 10.5787 2.0517 11.8483C3.31673 13.1218 5.07435 13.9028 7 13.9028C8.92831 13.9028 10.6759 13.1122 11.9455 11.8511C13.2191 10.586 14 8.82842 14 6.90277C14 4.97554 13.2102 3.21912 11.9469 1.95586C11.7191 1.72806 11.3498 1.72806 11.122 1.95586C10.8942 2.18367 10.8942 2.55301 11.122 2.78082C12.1765 3.83534 12.8333 5.2989 12.8333 6.90277C12.8333 8.50824 12.1832 9.97061 11.1233 11.0234C10.0596 12.08 8.6028 12.7361 7 12.7361C5.39454 12.7361 3.93215 12.0859 2.87941 11.0261C1.82277 9.96238 1.16667 8.50558 1.16667 6.90277C1.16667 5.29731 1.81684 3.83494 2.87665 2.7822Z" fill="black"/>
</g>
</g>
<defs>
<clipPath id="clip0_156_4627">
<rect width="14" height="14" fill="white"/>
</clipPath>
</defs>
</svg>

<svg xmlns="http://www.w3.org/2000/svg" fill="none" viewBox="0 0 14 14"><g clip-path="url(#a)"><path fill="#000" fill-rule="evenodd" d="M7.583.68a.583.583 0 1 0-1.166 0v6.223a.583.583 0 1 0 1.166 0zM2.877 2.783a.583.583 0 0 0-.823-.828A6.96 6.96 0 0 0 0 6.903c0 1.928.79 3.676 2.052 4.945A6.96 6.96 0 0 0 7 13.903c1.928 0 3.676-.79 4.945-2.052A6.96 6.96 0 0 0 14 6.903c0-1.927-.79-3.684-2.053-4.947a.583.583 0 1 0-.825.825 5.83 5.83 0 0 1 1.711 4.122c0 1.605-.65 3.068-1.71 4.12A5.84 5.84 0 0 1 7 12.736a5.8 5.8 0 0 1-4.12-1.71 5.84 5.84 0 0 1-1.713-4.123c0-1.606.65-3.068 1.71-4.12" clip-rule="evenodd"/></g><defs><clipPath id="a"><path fill="#fff" d="M0 0h14v14H0z"/></clipPath></defs></svg>
